X:440
T: ES WOLLT EIN SCHNEIDER WANDERN
N: E1637
O: Europa, Mitteleuropa, Deutschland, Friesland
R: Staende -, Handwerker - Lied, Schneider
M: 3/8
L: 1/16
K: G
D2 | D4G2 | A2G2A2 | B2B2z
B | d2B2G2 | B2A2A2 | G4
D2 | D4G2 | A2G2A2 | B2B2z
B | d2B2G2 | B2A2A2 | G4z2 |
B2B2d2 | A3GF2 | G4z2 |
G2E2A2 | F3GFE | D4
D2 | D2G2G2 | A2G2A2 | B2B2z
B | d2B2G2 | B2A2A2 | G4

@@@ Tune index: 5124
